!!!OTL-incipit: WOHL KOMMT DER MAI MIT MANCHERLEI
!!!ARE: Europa, Mitteleuropa, Deutschland
!!!SCT: Z0279
!!!TXL: @@DE
!!!YEM: Copyright 1995, estate of Helmut Schaffrath.
**kern	**text
*ICvox	*
*M3/8	*
*k[]	*
*C:	*
!LO:TX:a:t=Altdeutſch.	!
{8gg	Wohl
=1	=1
8.eeL	kommt
16ddJ	.
8cc	der
=2	=2
4dd}	Mai
{8g	mit
=3	=3
8.ffL	man-
16eeJ	.
8dd	-cher-
=4	=4
4ee}	-lei
{8cc	der
=5	=5
8.eeL	Blüm-
16ddJ	.
8cc	-lein
=6	=6
4ff}	ʒart,
{8dd	nach
=7	=7
8.eeL	je-
16ddJ	.
8cc	-ner
=8	=8
4ff}	Art,
{8dd	er-
=9	=9
8.eeL	-quik-
16ffJ	.
8gg	-ket
=10	=10
8.ggL	das
16ffJ	.
8ee	ver-
=11	=11
4dd	-dor-
8dd	-ben
=12	=12
4dd	war,
8r}	.
=13	=13
{4g	ja,
16gL	durch
16aJ	.
=14	=14
8b	Winters
16bL	.
16ccJ	.
16ddL	Ge-
16eeJ	.
=15	=15
4ff	-walt,
8r}	.
=16	=16
{8.eeL	das
16ffJ	.
8gg	er-
=17	=17
8.eeL	-freut
16ddJ	.
8cc	ſich
=18	=18
8ddL	man-
8gJ	.
8b	-nig-
=19	=19
4cc}	-falt.
==	==
!!!AGN: Lyrisches Lied, Romanze
!!!ONB: ESAC (Essen Associative Code) Database: ZUCCAL
!!!AMT: simple triple
!!!AIN: vox
!!!EED: Helmut Schaffrath
!!!EEV: 1.0
!!!GTL: IV. Lyrische Lieder.
!!!URL-scan: https://www.digitale-sammlungen.de/de/view/bsb11160571?page=505
!!!ENC: Anna Maria Matuszewska
!!!EEV: 2025/01/30
*-	*-
